Numix-GalliumOS/64/mimetypes/application-archive-zip.svg

<svg xmlns="http://www.w3.org/2000/svg" xmlns:xlink="http://www.w3.org/1999/xlink" width="64px" height="64px" viewBox="0 0 64 64" version="1.1">
<g id="surface1">
<path style=" stroke:none;fill-rule:nonzero;fill:rgb(75.686275%,58.431373%,32.54902%);fill-opacity:1;" d="M 10.671875 0 C 9.296875 0 8 1.355469 8 2.789062 L 8 61.210938 C 8 62.566406 9.375 64 10.671875 64 L 53.328125 64 C 54.625 64 56 62.566406 56 61.210938 L 56 18 L 38 0 Z M 10.671875 0 "/>
<path style=" stroke:none;fill-rule:nonzero;fill:rgb(0%,0%,0%);fill-opacity:0.196078;" d="M 42 18 L 56 32 L 56 18 Z M 42 18 "/>
<path style=" stroke:none;fill-rule:nonzero;fill:rgb(0%,0%,0%);fill-opacity:0.196078;" d="M 8 48 L 8 61.335938 C 8 62.632812 9.375 64 10.664062 64 L 53.335938 64 C 54.625 64 56 62.632812 56 61.335938 L 56 48 Z M 8 48 "/>
<path style=" stroke:none;fill-rule:nonzero;fill:rgb(100%,100%,100%);fill-opacity:0.392157;" d="M 38 0 L 55.984375 18 L 40.757812 18 C 39.410156 18 38 16.574219 38 15.226562 Z M 38 0 "/>
<path style=" stroke:none;fill-rule:nonzero;fill:rgb(100%,100%,100%);fill-opacity:1;" d="M 25.832031 52.46875 C 25.273438 53.25 24.757812 53.996094 24.28125 54.683594 C 23.816406 55.375 23.371094 56.039062 22.96875 56.667969 C 22.558594 57.292969 22.175781 57.890625 21.8125 58.472656 C 21.460938 59.046875 21.117188 59.613281 20.789062 60.179688 L 26.011719 60.179688 L 26.011719 62 L 18 62 L 18 60.730469 C 18.285156 60.21875 18.597656 59.679688 18.925781 59.121094 C 19.253906 58.546875 19.617188 57.941406 20.027344 57.292969 C 20.425781 56.652344 20.871094 55.957031 21.339844 55.199219 C 21.820312 54.453125 22.355469 53.632812 22.929688 52.75 L 18.253906 52.75 L 18.253906 50.929688 L 25.832031 50.929688 L 25.832031 52.46875 "/>
<path style=" stroke:none;fill-rule:evenodd;fill:rgb(97.647059%,97.647059%,97.647059%);fill-opacity:1;" d="M 18 0 L 24 0 L 24 6 L 18 6 Z M 18 0 "/>
<path style=" stroke:none;fill-rule:nonzero;fill:rgb(100%,100%,100%);fill-opacity:1;" d="M 27.972656 62 L 27.972656 60.179688 L 30.621094 60.179688 L 30.621094 52.75 L 27.972656 52.75 L 27.972656 50.929688 L 35.691406 50.929688 L 35.691406 52.75 L 33.058594 52.75 L 33.058594 60.179688 L 35.691406 60.179688 L 35.691406 62 L 27.972656 62 "/>
<path style=" stroke:none;fill-rule:evenodd;fill:rgb(97.647059%,97.647059%,97.647059%);fill-opacity:1;" d="M 24 6 L 30 6 L 30 12 L 24 12 Z M 24 6 "/>
<path style=" stroke:none;fill-rule:nonzero;fill:rgb(100%,100%,100%);fill-opacity:1;" d="M 41.128906 50.804688 C 42.671875 50.804688 43.867188 51.09375 44.71875 51.683594 C 45.574219 52.25 46 53.191406 46 54.503906 C 46 55.832031 45.566406 56.792969 44.703125 57.382812 C 43.851562 57.972656 42.636719 58.261719 41.070312 58.261719 L 40.210938 58.261719 L 40.210938 62 L 37.789062 62 L 37.789062 51.066406 C 38.027344 51.027344 38.289062 50.976562 38.578125 50.945312 C 38.882812 50.910156 39.175781 50.886719 39.480469 50.871094 C 39.785156 50.847656 40.078125 50.828125 40.367188 50.820312 C 40.652344 50.804688 40.90625 50.804688 41.128906 50.804688 M 41.40625 52.714844 C 41.257812 52.714844 41.054688 52.722656 40.792969 52.730469 C 40.546875 52.730469 40.347656 52.75 40.210938 52.773438 L 40.210938 56.347656 L 41.1875 56.347656 C 41.957031 56.347656 42.539062 56.210938 42.933594 55.9375 C 43.328125 55.652344 43.523438 55.167969 43.523438 54.488281 C 43.523438 53.839844 43.328125 53.386719 42.933594 53.125 C 42.554688 52.855469 42.046875 52.714844 41.40625 52.714844 "/>
<path style=" stroke:none;fill-rule:evenodd;fill:rgb(97.647059%,97.647059%,97.647059%);fill-opacity:1;" d="M 18 12 L 24 12 L 24 18 L 18 18 Z M 18 12 "/>
<path style=" stroke:none;fill-rule:evenodd;fill:rgb(97.647059%,97.647059%,97.647059%);fill-opacity:1;" d="M 24 18 L 30 18 L 30 24 L 24 24 Z M 24 18 "/>
<path style=" stroke:none;fill-rule:evenodd;fill:rgb(97.647059%,97.647059%,97.647059%);fill-opacity:1;" d="M 18 24 L 24 24 L 24 30 L 18 30 Z M 18 24 "/>
<path style=" stroke:none;fill-rule:evenodd;fill:rgb(97.647059%,97.647059%,97.647059%);fill-opacity:1;" d="M 18 32 L 30 32 L 30 44 L 18 44 Z M 18 32 "/>
</g>
</svg>

<svg xmlns="http://www.w3.org/2000/svg" viewBox="0 0 64 64">
 <g>
  <path d="m 10.672 0 c -1.375 0 -2.672 1.355 -2.672 2.789 l 0 58.42 c 0 1.355 1.375 2.789 2.672 2.789 l 42.656 0 c 1.297 0 2.672 -1.434 2.672 -2.789 l 0 -43.21 l -18 -18 m -27.328 0" style="fill:#c19553;fill-opacity:1;stroke:none;fill-rule:nonzero"/>
  <path d="m 42 18 l 14 14 l 0 -14 m -14 0" style="fill:#000;fill-opacity:0.196;stroke:none;fill-rule:nonzero"/>
  <path d="m 8 48 l 0 13.336 c 0 1.297 1.375 2.664 2.664 2.664 l 42.672 0 c 1.289 0 2.664 -1.367 2.664 -2.664 l 0 -13.336 m -48 0" style="fill:#000;fill-opacity:0.196;stroke:none;fill-rule:nonzero"/>
  <path d="m 38 0 l 17.984 18 l -15.227 0 c -1.348 0 -2.758 -1.426 -2.758 -2.773 m 0 -15.227" style="fill:#fff;fill-opacity:0.392;stroke:none;fill-rule:nonzero"/>
  <path d="m 25.832 52.47 c -0.559 0.781 -1.074 1.527 -1.551 2.215 c -0.465 0.691 -0.91 1.355 -1.313 1.984 c -0.41 0.625 -0.793 1.223 -1.156 1.805 c -0.352 0.574 -0.695 1.141 -1.023 1.707 l 5.223 0 l 0 1.82 l -8.01 0 l 0 -1.27 c 0.285 -0.512 0.598 -1.051 0.926 -1.609 c 0.328 -0.574 0.691 -1.18 1.102 -1.828 c 0.398 -0.641 0.844 -1.336 1.313 -2.094 c 0.48 -0.746 1.016 -1.566 1.59 -2.449 l -4.676 0 l 0 -1.82 l 7.578 0 l 0 1.539" style="fill:#fff;fill-opacity:1;stroke:none;fill-rule:nonzero"/>
  <path d="m 18 0 l 6 0 l 0 6 l -6 0 m 0 -6" style="fill:#f9f9f9;fill-opacity:1;stroke:none;fill-rule:evenodd"/>
  <path d="m 27.973 62 l 0 -1.82 l 2.648 0 l 0 -7.43 l -2.648 0 l 0 -1.82 l 7.719 0 l 0 1.82 l -2.633 0 l 0 7.43 l 2.633 0 l 0 1.82 l -7.719 0" style="fill:#fff;fill-opacity:1;stroke:none;fill-rule:nonzero"/>
  <path d="m 24 6 l 6 0 l 0 6 l -6 0 m 0 -6" style="fill:#f9f9f9;fill-opacity:1;stroke:none;fill-rule:evenodd"/>
  <path d="m 41.13 50.805 c 1.543 0 2.738 0.289 3.59 0.879 c 0.855 0.566 1.281 1.508 1.281 2.82 c 0 1.328 -0.434 2.289 -1.297 2.879 c -0.852 0.59 -2.066 0.879 -3.633 0.879 l -0.859 0 l 0 3.738 l -2.422 0 l 0 -10.934 c 0.238 -0.039 0.5 -0.09 0.789 -0.121 c 0.305 -0.035 0.598 -0.059 0.902 -0.074 c 0.305 -0.023 0.598 -0.043 0.887 -0.051 c 0.285 -0.016 0.539 -0.016 0.762 -0.016 m 0.277 1.91 c -0.148 0 -0.352 0.008 -0.613 0.016 c -0.246 0 -0.445 0.02 -0.582 0.043 l 0 3.574 l 0.977 0 c 0.77 0 1.352 -0.137 1.746 -0.41 c 0.395 -0.285 0.59 -0.77 0.59 -1.449 c 0 -0.648 -0.195 -1.102 -0.59 -1.363 c -0.379 -0.27 -0.887 -0.41 -1.527 -0.41" style="fill:#fff;fill-opacity:1;stroke:none;fill-rule:nonzero"/>
  <path d="m 18 12 l 6 0 l 0 6 l -6 0 m 0 -6" style="fill:#f9f9f9;fill-opacity:1;stroke:none;fill-rule:evenodd"/>
  <path d="m 24 18 l 6 0 l 0 6 l -6 0 m 0 -6" style="fill:#f9f9f9;fill-opacity:1;stroke:none;fill-rule:evenodd"/>
  <path d="m 18 24 l 6 0 l 0 6 l -6 0 m 0 -6" style="fill:#f9f9f9;fill-opacity:1;stroke:none;fill-rule:evenodd"/>
  <path d="m 18 32 l 12 0 l 0 12 l -12 0 m 0 -12" style="fill:#f9f9f9;fill-opacity:1;stroke:none;fill-rule:evenodd"/>
 </g>
</svg>
